dist/img/icons/specialty/7.svg

<svg width="64" height="64" viewBox="0 0 64 64" fill="none" xmlns="http://www.w3.org/2000/svg">
<path d="M44.3959 46.2635L43.7342 45.9732L43.8383 45.5853C44.0796 44.687 43.7996 43.7428 43.1079 43.1208L41.2432 41.4444C40.9593 41.1894 40.5929 41.049 40.2115 41.049H38.0623V39.7422C39.3439 39.012 40.4813 38.0428 41.4119 36.8782C41.7351 36.4736 41.6693 35.8837 41.2646 35.5604C40.8599 35.2371 40.2701 35.303 39.9469 35.7077C38.8013 37.1417 37.283 38.2233 35.5565 38.8357L34.0489 39.3705C32.6425 39.8693 31.0941 39.8662 29.6895 39.3616L28.2805 38.8552C24.3896 37.4568 21.7756 33.7395 21.7756 29.605V21.3956C21.7756 19.467 22.6936 17.6211 24.2315 16.4573L26.9567 14.3954L31.6738 16.9847C34.7839 18.692 38.3021 19.6548 41.8484 19.7691L42.0995 19.7771V29.5719C42.0995 30.559 41.9508 31.5388 41.6573 32.4843C41.5037 32.9788 41.7801 33.5041 42.2747 33.6578C42.77 33.8111 43.2946 33.5347 43.4482 33.0403C43.7976 31.9147 43.9747 30.7478 43.9747 29.572V28.9227C46.0523 28.5279 47.6283 26.6994 47.6283 24.5087C47.6283 23.5256 47.3101 22.6158 46.7724 21.8752V16.4438C46.7724 13.8507 45.8342 11.4138 44.1202 9.50018L46.1881 6.09264C46.388 5.76299 46.441 5.36158 46.3339 4.99142C46.2268 4.62114 45.9674 4.31024 45.6223 4.13847L42.1573 2.4132C36.7452 -0.281532 30.5982 -0.735946 24.8488 1.13309C24.3565 1.29323 24.087 1.82227 24.2471 2.31469C24.4073 2.80723 24.9366 3.07638 25.4287 2.91637C26.2107 2.6621 27.0007 2.45583 27.7954 2.29494C27.2841 3.07363 26.9851 4.00334 26.9851 5.00255C26.9851 6.33591 27.5167 7.54614 28.3767 8.43734C26.3474 8.78037 24.3554 9.41768 22.465 10.3513L19.5684 5.5781L21.8793 4.4275C22.3428 4.1966 22.5315 3.6338 22.3007 3.17026C22.07 2.70672 21.507 2.51821 21.0435 2.74885L18.2526 4.13847C17.9075 4.31036 17.6481 4.62126 17.5411 4.99167C17.4341 5.36195 17.4873 5.76324 17.6872 6.09264L19.8155 9.59994C18.16 11.4986 17.2539 13.9003 17.2539 16.4438V21.412C17.2539 21.4913 17.2648 21.5678 17.2834 21.6415C16.6366 22.4202 16.2471 23.4198 16.2471 24.5087C16.2471 25.5589 16.6102 26.5255 17.2162 27.2915L16.8554 30.0293C16.7037 31.1802 16.244 32.2705 15.5256 33.1825C13.9661 35.1621 12.9365 37.526 12.5484 40.0183C12.4686 40.53 12.8188 41.0093 13.3305 41.0889C13.3793 41.0966 13.4278 41.1003 13.4758 41.1003C13.93 41.1003 14.329 40.7696 14.401 40.3068C14.7399 38.1323 15.6381 36.0698 16.9986 34.3427C17.9255 33.1661 18.5188 31.7592 18.7144 30.2742L18.9322 28.6213C19.2386 28.7567 19.5629 28.8586 19.9004 28.9227V29.605C19.9004 33.8949 22.2643 37.8069 25.9377 39.8442V41.049H23.9395C23.5581 41.049 23.1917 41.1894 22.9073 41.4448L21.0432 43.1208C20.3514 43.7428 20.0715 44.687 20.3125 45.5852L20.4007 45.9138L19.6036 46.2635C18.2379 46.8626 16.9979 47.6566 15.9074 48.6022C15.1351 47.2386 14.6256 45.7609 14.3905 44.1999C14.3137 43.6879 13.8351 43.3361 13.324 43.4122C12.8119 43.4894 12.4593 43.9669 12.5364 44.4789C12.8309 46.4364 13.5028 48.2791 14.5332 49.962C12.219 52.5804 10.8701 55.9987 10.8701 59.6321V63.0622C10.8701 63.5801 11.2898 63.9997 11.8077 63.9997C12.3256 63.9997 12.7453 63.5801 12.7453 63.0622V59.6321C12.7453 59.346 12.7562 59.0617 12.7752 58.7789H15.9994C15.5555 60.2219 15.5033 61.7729 15.8797 63.2882C15.9857 63.7147 16.3681 63.9999 16.7887 63.9999C16.8636 63.9999 16.9396 63.9909 17.0155 63.9719C17.5181 63.8471 17.8242 63.3386 17.6993 62.8359C17.2108 60.8692 17.6438 58.8234 18.8873 57.2234L19.0797 56.976C19.3976 56.5672 19.3238 55.9782 18.9151 55.6604C18.5063 55.3424 17.9172 55.4163 17.5994 55.825L17.4069 56.0726C17.1989 56.3402 17.0095 56.618 16.837 56.9035H13.0416C13.902 52.9843 16.5846 49.6354 20.3568 47.9804L20.892 47.7456L23.4112 57.1357C23.649 58.0219 24.2569 58.7638 25.0788 59.1715C25.5251 59.3928 26.0118 59.5042 26.4993 59.5042C26.9096 59.5042 27.3204 59.4254 27.7086 59.2668L30.8082 58.0002H31.1375V63.0619C31.1375 63.5798 31.5571 63.9995 32.0751 63.9995C32.593 63.9995 33.0126 63.5798 33.0126 63.0619V58.0002H33.3419L36.4416 59.2668C36.8296 59.4255 37.2405 59.5042 37.6508 59.5042C38.1382 59.5042 38.625 59.3927 39.0713 59.1715C39.8932 58.7638 40.5012 58.0219 40.7389 57.1357L43.2421 47.805L43.642 47.9804C47.4144 49.6354 50.097 52.9843 50.9574 56.9035H47.3131C47.1407 56.6179 46.9512 56.3401 46.7432 56.0724L46.5508 55.825C46.2329 55.4163 45.6437 55.3429 45.2352 55.6604C44.8263 55.9782 44.7526 56.5674 45.0705 56.976L45.2628 57.2234C46.5064 58.8235 46.9395 60.8692 46.4509 62.8359C46.326 63.3386 46.6322 63.8471 47.1347 63.9719C47.2106 63.9907 47.2867 63.9999 47.3615 63.9999C47.782 63.9999 48.1647 63.7147 48.2706 63.2882C48.647 61.7729 48.5947 60.222 48.1508 58.7789H51.2239C51.2429 59.0617 51.2538 59.346 51.2538 59.6321V63.0622C51.2538 63.5801 51.6735 63.9997 52.1914 63.9997C52.7093 63.9997 53.129 63.5801 53.129 63.0622V59.6321C53.1295 53.8386 49.7014 48.591 44.3959 46.2635ZM43.9744 26.9867V22.0306C45.0069 22.3819 45.7529 23.3589 45.7529 24.5086C45.7529 25.6583 45.0069 26.6354 43.9744 26.9867ZM44.3065 5.5781L41.41 10.3514C39.5196 9.4178 37.5275 8.78037 35.4981 8.43734C36.3583 7.54627 36.8896 6.33591 36.8896 5.00255C36.8896 4.00009 36.5879 3.06813 36.0738 2.28794C37.8734 2.65097 39.6361 3.25265 41.3211 4.09172L44.3065 5.5781ZM35.0146 5.00255C35.0146 6.69932 33.6342 8.07969 31.9374 8.07969C30.2406 8.07969 28.8602 6.69932 28.8602 5.00255C28.8602 3.30578 30.2406 1.92528 31.9374 1.92528C33.6342 1.92528 35.0146 3.30578 35.0146 5.00255ZM20.8488 11.303L21.1811 11.8506C21.5138 12.3994 22.2187 12.5938 22.7865 12.293C28.5164 9.25279 35.3583 9.25291 41.088 12.293C41.2685 12.3889 41.4631 12.4346 41.6551 12.4346C42.0664 12.4346 42.4663 12.225 42.6933 11.8509L43.0917 11.1943C44.2608 12.6888 44.8969 14.5131 44.8969 16.4438V20.3754C44.604 20.25 44.2951 20.1556 43.9743 20.0946V19.2586C43.9743 18.5316 43.405 17.9434 42.6778 17.9197L41.9084 17.8949C38.6557 17.79 35.4286 16.9069 32.576 15.3409L27.8379 12.7401C27.204 12.3916 26.4211 12.4486 25.8443 12.8855L23.0999 14.9619C21.4515 16.2094 20.3516 18.0588 20.0126 20.0743C19.7066 20.1245 19.4111 20.2057 19.1289 20.3146V16.4437C19.1289 14.5629 19.7349 12.7777 20.8488 11.303ZM18.122 24.5086C18.122 23.3589 18.8678 22.3819 19.9003 22.0306V26.9866C18.8678 26.6353 18.122 25.6584 18.122 24.5086ZM38.9821 42.9242L38.6139 43.7267L38.0621 43.4847V42.9242H38.9821ZM29.0553 41.1262C29.9663 41.4536 30.9238 41.6173 31.8818 41.6173C32.828 41.6173 33.7746 41.4576 34.6758 41.1378L36.1834 40.603C36.1847 40.6026 36.1859 40.6021 36.187 40.6016V44.0973C36.187 44.4694 36.4072 44.8063 36.748 44.9559L37.8318 45.4313L32.925 56.1252H31.2259L26.2938 45.3761L27.2519 44.9559C27.5927 44.8063 27.8127 44.4693 27.8127 44.0973V40.6796L29.0553 41.1262ZM25.9375 42.9242V43.4847L25.5117 43.6715L25.1688 42.9241H25.9375V42.9242ZM26.9996 57.5313C26.6435 57.6768 26.2573 57.6629 25.9123 57.4919C25.5674 57.3209 25.3225 57.0219 25.2227 56.6501L22.1237 45.0994C22.0666 44.8866 22.133 44.6628 22.297 44.5154L23.3863 43.536L29.3646 56.5651L26.9996 57.5313ZM42.0272 45.0992L38.9283 56.65C38.8285 57.0219 38.5836 57.3208 38.2387 57.4918C37.8937 57.6628 37.5075 57.6767 37.1514 57.5312L34.7864 56.5649L40.7647 43.5357L41.8541 44.5152C42.018 44.6626 42.0844 44.8863 42.0272 45.0992Z" fill="#F1B08D"/>
<path d="M30.9997 3.92952V4.13817H30.7911C30.2732 4.13817 29.8535 4.55783 29.8535 5.07575C29.8535 5.59367 30.2732 6.01333 30.7911 6.01333H30.9997V6.22197C30.9997 6.73989 31.4194 7.15955 31.9373 7.15955C32.4552 7.15955 32.8749 6.73989 32.8749 6.22197V6.01333H33.0836C33.6015 6.01333 34.0211 5.59367 34.0211 5.07575C34.0211 4.55783 33.6015 4.13817 33.0836 4.13817H32.8749V3.92952C32.8749 3.4116 32.4552 2.99194 31.9373 2.99194C31.4194 2.99194 30.9997 3.41173 30.9997 3.92952Z" fill="#F1B08D"/>
</svg>

<svg width="64" height="64" fill="none" xmlns="http://www.w3.org/2000/svg"><path d="M44.396 46.264l-.662-.29.104-.389a2.446 2.446 0 00-.73-2.464l-1.865-1.677a1.542 1.542 0 00-1.032-.395h-2.149v-1.307c1.282-.73 2.42-1.7 3.35-2.864a.938.938 0 10-1.465-1.17 9.816 9.816 0 01-4.39 3.128l-1.508.535a6.501 6.501 0 01-4.36-.01l-1.409-.506a9.853 9.853 0 01-6.504-9.25v-8.21c0-1.928.918-3.774 2.456-4.938l2.725-2.062 4.717 2.59a22.767 22.767 0 0010.174 2.784l.252.008v9.795c0 .987-.15 1.967-.443 2.912a.938.938 0 101.791.556c.35-1.125.527-2.292.527-3.468v-.65a4.5 4.5 0 003.653-4.413c0-.983-.318-1.893-.856-2.634v-5.431c0-2.593-.938-5.03-2.652-6.944l2.068-3.407a1.385 1.385 0 00-.566-1.954l-3.465-1.726a22.8 22.8 0 00-17.308-1.28.938.938 0 00.58 1.783c.782-.254 1.572-.46 2.366-.621a4.933 4.933 0 00.581 6.142 21.39 21.39 0 00-5.911 1.914l-2.897-4.773 2.311-1.15a.938.938 0 00-.835-1.68l-2.791 1.39a1.385 1.385 0 00-.566 1.955L19.815 9.6a10.353 10.353 0 00-2.561 6.844v4.968c0 .08.01.156.03.23a4.473 4.473 0 00-1.037 2.867c0 1.05.363 2.017.97 2.782l-.362 2.738a6.463 6.463 0 01-1.33 3.153 14.732 14.732 0 00-2.977 6.836.937.937 0 101.853.289 12.857 12.857 0 012.598-5.964 8.337 8.337 0 001.715-4.069l.218-1.653c.307.136.63.238.968.302v.682a11.74 11.74 0 006.038 10.24v1.204H23.94c-.382 0-.748.14-1.033.396l-1.864 1.676a2.446 2.446 0 00-.73 2.464l.088.329-.797.35a14.576 14.576 0 00-3.697 2.338A12.738 12.738 0 0114.39 44.2a.939.939 0 00-1.854.279c.295 1.957.967 3.8 1.997 5.483a14.595 14.595 0 00-3.663 9.67v3.43a.937.937 0 101.875 0v-3.43c0-.286.011-.57.03-.853H16a8.406 8.406 0 00-.12 4.51.938.938 0 101.82-.453 6.529 6.529 0 011.188-5.613l.193-.247a.937.937 0 10-1.48-1.151l-.193.248a8.596 8.596 0 00-.57.83h-3.795a12.726 12.726 0 017.315-8.923l.535-.234 2.52 9.39a3.199 3.199 0 004.297 2.13L30.81 58h.328v5.062a.937.937 0 101.876 0V58h.329l3.1 1.267a3.193 3.193 0 002.63-.096 3.199 3.199 0 001.667-2.035l2.503-9.331.4.175a12.726 12.726 0 017.315 8.924h-3.644a8.58 8.58 0 00-.57-.832l-.192-.247a.938.938 0 00-1.48 1.151l.192.247a6.528 6.528 0 011.188 5.613.937.937 0 101.82.452 8.406 8.406 0 00-.12-4.51h3.073c.019.284.03.568.03.854v3.43a.937.937 0 101.875 0v-3.43a14.6 14.6 0 00-8.733-13.368zm-.422-19.277V22.03a2.622 2.622 0 011.779 2.478c0 1.15-.746 2.126-1.779 2.478zm.333-21.409l-2.897 4.773a21.4 21.4 0 00-5.912-1.914 4.932 4.932 0 00.576-6.15c1.8.364 3.562.966 5.247 1.805l2.986 1.486zm-9.292-.575a3.08 3.08 0 01-3.078 3.077 3.08 3.08 0 01-3.077-3.077 3.08 3.08 0 013.077-3.078 3.08 3.08 0 013.078 3.078zm-14.166 6.3l.332.548a1.214 1.214 0 001.605.442 19.502 19.502 0 0118.302 0 1.213 1.213 0 001.605-.442l.399-.657a8.468 8.468 0 011.805 5.25v3.931a4.459 4.459 0 00-.923-.28v-.836c0-.727-.569-1.316-1.296-1.34l-.77-.024a20.883 20.883 0 01-9.332-2.554l-4.738-2.6a1.839 1.839 0 00-1.994.145L23.1 14.962a8.117 8.117 0 00-3.087 5.112c-.306.05-.602.132-.884.24v-3.87c0-1.881.606-3.666 1.72-5.141zm-2.727 13.206c0-1.15.746-2.127 1.778-2.478v4.956a2.622 2.622 0 01-1.778-2.478zm20.86 18.415l-.368.803-.552-.242v-.56h.92zm-9.927-1.798a8.36 8.36 0 005.62.012l1.508-.535a.03.03 0 00.004-.001v3.495c0 .372.22.71.561.859l1.084.475-4.907 10.694h-1.7l-4.931-10.749.958-.42a.94.94 0 00.56-.859V40.68l1.243.446zm-3.117 1.798v.56l-.426.188-.343-.748h.768zM27 57.531a1.305 1.305 0 01-1.088-.04 1.305 1.305 0 01-.69-.84l-3.098-11.552a.58.58 0 01.173-.584l1.09-.979 5.978 13.03L27 57.53zM42.027 45.1l-3.099 11.55c-.1.372-.344.67-.69.842a1.305 1.305 0 01-1.087.04l-2.365-.967 5.979-13.03 1.09.98a.58.58 0 01.172.584z" fill="#F1B08D"/><path d="M31 3.93v.208h-.209a.937.937 0 100 1.875H31v.209a.937.937 0 101.875 0v-.209h.209a.937.937 0 100-1.875h-.21V3.93a.937.937 0 10-1.874 0z" fill="#F1B08D"/></svg>
